X: 13717
T: For Yann
R: reel
M: 4/4
K: Dmajor
|:DFAc dAed|faae aacd|B2BA BcdA|^GBfe- e=GAd|DFAc dAed|
faba- adcA|1 Bd'c'b b2gf-|fAdf Acde:|2 BdcA edcd|GAdA afee||
|:D2dc- cc2A-|A4- Aegf|AcdA cdfd|F_BdG _Bded|
[1 B2BA B/c/d eg|fddd- ddcA|^Gdfe- edcd|GAde- eG F/G/F:|
[2 B6 _B2|A8|G6- GG-|GG2A- AG A/B/d||

